components/ui-node-icon/src/changeDataType/changeDataType.large.svg

<svg width="32" height="32" viewBox="0 0 32 32" fill="none" xmlns="http://www.w3.org/2000/svg">
  <path fill-rule="evenodd" clip-rule="evenodd" d="M10 10H8C5.79086 10 4 11.7909 4 14V24C4 26.2091 5.79086 28 8 28H18C20.2091 28 22 26.2091 22 24V22H14C11.7909 22 10 20.2091 10 18V10Z" fill="var(--tbl--colors--icons--clean--secondary)"/>
  <path fill-rule="evenodd" clip-rule="evenodd" d="M14 4C11.7909 4 10 5.79086 10 8V18C10 20.2091 11.7909 22 14 22H24C26.2091 22 28 20.2091 28 18V8C28 5.79086 26.2091 4 24 4H14ZM22.3162 8.05134C22.8402 8.22599 23.1233 8.79231 22.9487 9.31626L22.7208 10H23.75C24.1642 10 24.5 10.3358 24.5 10.75C24.5 11.1642 24.1642 11.5 23.75 11.5H22.2208L21.3874 14H22.25C22.6642 14 23 14.3358 23 14.75C23 15.1642 22.6642 15.5 22.25 15.5H20.8874L20.4487 16.8163C20.274 17.3402 19.7077 17.6234 19.1838 17.4487C18.6598 17.2741 18.3767 16.7077 18.5513 16.1838L18.7792 15.5H16.8874L16.4487 16.8162C16.274 17.3401 15.7077 17.6233 15.1838 17.4487C14.6598 17.274 14.3767 16.7077 14.5513 16.1837L14.7792 15.5H13.75C13.3358 15.5 13 15.1642 13 14.75C13 14.3358 13.3358 14 13.75 14H15.2792L16.1126 11.5H15.75C15.3358 11.5 15 11.1642 15 10.75C15 10.3358 15.3358 10 15.75 10H16.6126L17.0513 8.6838C17.226 8.15986 17.7923 7.8767 18.3162 8.05135C18.8402 8.226 19.1233 8.79232 18.9487 9.31626L18.7208 10H20.6126L21.0513 8.6838C21.226 8.15986 21.7923 7.8767 22.3162 8.05134ZM18.2208 11.5H20.1126L19.2792 14H17.3874L18.2208 11.5Z" fill="var(--tbl--colors--icons--clean--primary)"/>
</svg>

<svg xmlns="http://www.w3.org/2000/svg" width="32" height="32" fill="none" viewBox="0 0 32 32">
  <path fill="var(--tbl--colors--icons--clean--secondary)" fill-rule="evenodd" d="M10 10H8a4 4 0 0 0-4 4v10a4 4 0 0 0 4 4h10a4 4 0 0 0 4-4v-2h-8a4 4 0 0 1-4-4v-8Z" clip-rule="evenodd"/>
  <path fill="var(--tbl--colors--icons--clean--primary)" fill-rule="evenodd" d="M14 4a4 4 0 0 0-4 4v10a4 4 0 0 0 4 4h10a4 4 0 0 0 4-4V8a4 4 0 0 0-4-4H14Zm8.316 4.051a1 1 0 0 1 .633 1.265L22.72 10h1.029a.75.75 0 0 1 0 1.5h-1.53l-.833 2.5h.863a.75.75 0 0 1 0 1.5h-1.363l-.438 1.316a1 1 0 0 1-1.898-.632l.228-.684h-1.892l-.438 1.316a1 1 0 0 1-1.898-.632l.228-.684H13.75a.75.75 0 0 1 0-1.5h1.53l.833-2.5h-.363a.75.75 0 0 1 0-1.5h.863l.438-1.316a1 1 0 0 1 1.898.632L18.72 10h1.892l.438-1.316a1 1 0 0 1 1.265-.633ZM18.221 11.5h1.892l-.834 2.5h-1.892l.834-2.5Z" clip-rule="evenodd"/>
</svg>
